{
  "type": "map",
  "version": "1.10",
  "orientation": "orthogonal",
  "renderorder": "right-down",
  "infinite": false,
  "width": 10,
  "height": 8,
  "tilewidth": 32,
  "tileheight": 32,
  "nextlayerid": 6,
  "nextobjectid": 4,
  "tilesets": [
    {
      "firstgid": 1,
      "name": "e2e",
      "tilewidth": 32,
      "tileheight": 32,
      "tilecount": 1,
      "columns": 1,
      "image": "e2e.png",
      "imagewidth": 32,
      "imageheight": 32,
      "margin": 0,
      "spacing": 0
    }
  ],
  "layers": [
    {
      "id": 1,
      "name": "floor",
      "type": "tilelayer",
      "width": 10,
      "height": 8,
      "x": 0,
      "y": 0,
      "opacity": 1,
      "visible": true,
      "data": [
        1,
        1,
        1,
        1,
        1,
        1,
        1,
        1,
        1,
        1,
        1,
        1,
        1,
        1,
        1,
        1,
        1,
        1,
        1,
        1,
        1,
        1,
        1,
        1,
        1,
        1,
        1,
        1,
        1,
        1,
        1,
        1,
        1,
        1,
        1,
        1,
        1,
        1,
        1,
        1,
        1,
        1,
        1,
        1,
        1,
        1,
        1,
        1,
        1,
        1,
        1,
        1,
        1,
        1,
        1,
        1,
        1,
        1,
        1,
        1,
        1,
        1,
        1,
        1,
        1,
        1,
        1,
        1,
        1,
        1,
        1,
        1,
        1,
        1,
        1,
        1,
        1,
        1,
        1,
        1
      ]
    },
    {
      "id": 2,
      "name": "collision",
      "type": "tilelayer",
      "width": 10,
      "height": 8,
      "x": 0,
      "y": 0,
      "opacity": 1,
      "visible": true,
      "data": [
        0,
        0,
        0,
        0,
        0,
        0,
        0,
        0,
        0,
        0,
        0,
        0,
        0,
        0,
        0,
        0,
        0,
        0,
        0,
        0,
        0,
        0,
        0,
        0,
        0,
        0,
        0,
        0,
        0,
        0,
        0,
        0,
        0,
        0,
        0,
        0,
        0,
        0,
        0,
        0,
        0,
        0,
        0,
        0,
        0,
        0,
        0,
        0,
        0,
        0,
        0,
        0,
        0,
        0,
        0,
        0,
        0,
        0,
        0,
        0,
        0,
        0,
        0,
        0,
        0,
        0,
        0,
        0,
        0,
        0,
        0,
        0,
        0,
        0,
        0,
        0,
        0,
        0,
        0,
        0
      ]
    },
    {
      "id": 3,
      "name": "rooms",
      "type": "objectgroup",
      "draworder": "topdown",
      "x": 0,
      "y": 0,
      "opacity": 1,
      "visible": true,
      "objects": [
        {
          "id": 1,
          "name": "Sala 1",
          "type": "",
          "x": 192,
          "y": 0,
          "width": 128,
          "height": 96,
          "rotation": 0,
          "visible": true,
          "properties": [
            {
              "name": "areaId",
              "type": "string",
              "value": "sala-1"
            },
            {
              "name": "name",
              "type": "string",
              "value": "Sala 1"
            }
          ]
        }
      ]
    },
    {
      "id": 4,
      "name": "spawns",
      "type": "objectgroup",
      "draworder": "topdown",
      "x": 0,
      "y": 0,
      "opacity": 1,
      "visible": true,
      "objects": [
        {
          "id": 2,
          "name": "",
          "type": "",
          "x": 32,
          "y": 160,
          "width": 0,
          "height": 0,
          "rotation": 0,
          "visible": true,
          "point": true
        },
        {
          "id": 3,
          "name": "",
          "type": "",
          "x": 64,
          "y": 160,
          "width": 0,
          "height": 0,
          "rotation": 0,
          "visible": true,
          "point": true
        }
      ]
    },
    {
      "id": 5,
      "name": "desks",
      "type": "objectgroup",
      "draworder": "topdown",
      "x": 0,
      "y": 0,
      "opacity": 1,
      "visible": true,
      "objects": []
    }
  ]
}